X: 655
T: Ermeneğin Keklikleri Ötüyor
C: Ahmet Özdemir
O: Turkey
F: http://compmusic.upf.edu/node/140
N: segah--turku--nimsofyan--ermenegin_keklikleri--konya
N: makam= segah
N: form= turku
N: usul= nimsofyan = 2/4
M: 2/4
L: 1/16
K: C _1/4B _1/4e ^f 
Q: 1/4=93
%%MIDI tuningsystem comma53
fg2f eee2  | ddB2 ccd2  | fg2f eee2  | ddBd cc{d}B2  | 
w:  ARANAĞME  |   |   |   | 
fg2f eee2  | ddB2 ccd2  | fg2f eee2  | ddBd cc{d}B2  | 
w:  ARANAĞME  |   |   |   | 
ddd2 ddd2  | ddd2 ddd2  | fgag fgag  | fgag fgag  | 
w:   |   |   |   | 
fgfg eee2  | fgfg eee2  | efga gafg  | 
w:   |   |   | 
egfg eed2  | ddB2 ccd2  | fg{a}gf eed2  | \
w:   |   |   | 
ddBd cc{d}B2  | 
w:   | 
fg2f eed2  | ddB2 ccd2  | fg2f eed2  | ddBd cc/d/B2  | 
w:   |   |   |   | 
fff2 fff2  | fff2 zf2f  | ff3 f2f2  | gfgf g2{g}e2  | 
w:   |  *  *  *  Er me  |  ne ğin   |  a man  *  *  kek *  lik  | 
e2e=f =efd2  | z2ee ee3  | e=fd2 dc{d}cd  | \
w:  le ri   |  ö tü yor_ am  |  man   *  *  SAZ  | 
z2dd fga2  | 
w:  A man_ a *  man_  | 
g2fg e=fd2  | ee=fe d3^c  | d2d6  | e=f{g}fe ded^c  | 
w:  am man   |  ö tü *  *  yor   |  hay di    |  SAZ  | 
dddd defg  | afge =fde^c  | ddd2 fgaf  | 
w:   |   |   | 
ggg2 gg3  | ggfg f2f2  | gge2 e2e2  | e2ag =fed2  | 
w:  *  *  *  Be nim   |  yâ rim   |  a man  *  göz le  |  rim de   | 
dcdB cBcB  | BBB2 BBB2  | z2Bc d2d2  | g2fg e2d2  | 
w:  tü tü *  *  yor_ am  |  man   SAZ  |  A man_ am man_  |  am man   | 
dcdB cBcB  | BBB2 BBB2  | z2Bc dd3  | dgfg e2d2  | 
w:  i pe *  *  yim_ am  |  man   SAZ  |  Der *  di mi   |  kim *  le *  re   | 
dcdB cBcB  | BBB2 BBB2  | GABc ddd2  | 
w:  dö ke *  *  yim_ am  |  man   SAZ  |  Ge li ve ri  gü lü ver   | 
g{a}g{a}fg e2d2  | z2dB cBcB  | BBB2 BBB2  | \
w:  be *  nim  *  *  *  naz lı   |  me le ğim_ am  |  man   SAZ  | 
fg2f eee2  | 
w:  ARANAĞME  | 
ddB2 ccd2  | fg2f eee2  | ddBd cc{d}B2  | \
w:   |   |   | 
fg2f eee2  | 
w:  ARANAĞME  | 
ddB2 ccd2  | fg2f eee2  | ddBd cc{d}B2  | \
w:   |   |   | 
ddd2 ddd2  | 
w:   | 
ddd2 ddd2  | fgag fgag  | fgag fgag  | 
w:   |   |   | 
fgfg eee2  | fgfg eee2  | efga gafg  | 
w:   |   |   | 
egfg eed2  | ddB2 ccd2  | fg{a}gf eed2  | \
w:   |   |   | 
ddBd cc{d}B2  | 
w:   | 
fg2f eed2  | ddB2 ccd2  | fg2f eed2  | ddBd cc/d/B2  | 
w:   |   |   |   | 
fff2 fff2  | fff2 zf2f  | ff3 f2f2  | gfgf g2{g}e2  | 
w:   |  *  *  *  Er me  |  ne ğin   |  a man  *  *  kek *  lik  | 
e2e=f =efd2  | z2ee ee3  | e=fd2 dc{d}cd  | \
w:  le ri   |  ö tü yor_ am  |  man   *  *  SAZ  | 
z2dd fga2  | 
w:  A man_ a *  man_  | 
g2fg e=fd2  | ee=fe d3^c  | d2d6  | e=f{g}fe ded^c  | 
w:  am man   |  ö tü *  *  yor   |  hay di    |  SAZ  | 
dddd defg  | afge =fde^c  | ddd2 fgaf  | 
w:   |   |   | 
ggg2 gg3  | ggfg f2f2  | gge2 e2e2  | e2ag =fed2  | 
w:  *  *  *  Be nim   |  yâ rim   |  a man  *  göz le  |  rim de   | 
dcdB cBcB  | BBB2 BBB2  | z2Bc d2d2  | g2fg e2d2  | 
w:  tü tü *  *  yor_ am  |  man   SAZ  |  A man_ am man_  |  am man   | 
dcdB cBcB  | BBB2 BBB2  | z2Bc dd3  | dgfg e2d2  | 
w:  i pe *  *  yim_ am  |  man   SAZ  |  Der *  di mi   |  kim *  le *  re   | 
dcdB cBcB  | BBB2 BBB2  | GABc ddd2  | 
w:  dö ke *  *  yim_ am  |  man   SAZ  |  Ge li ve ri  gü lü ver   | 
g{a}g{a}fg e2d2  | z2dB cBcB  | BBB2 BBB2  | |


